X:7
T:Cajun Two Step
M:4/4
C:Kees S.
K:G
DG|"G"B2c2B2 DG| BA GE "D"D2 DF| A2B2A2 DF| Ac BA "G"G2::\
Gc|"C"e2=f2e2 fe| =fe dB "G"G2 DF|"D"A2B2A2 DF| Ac BA "G"G2:|
